X:5614
T:Gale Force
R:strathspey
C:Paul S. Cranford
O:20th Century Cape Breton
D:The Lighthouse, Cranford Publications
B:The Lighthouse Collection, ISBN 0-9691181-5-5
N:http://www.cranfordpub.com
Q:244
L:1/8
M:C
K:Eaeo
D<EE>D F<E E2|AA dd|eB A<FF>d|F<EE>D F<E E2:|!
|:eg ea e<d B2|ee dd|B>AA<d F<E E2:|!
